X: 22284
T: La Pendexona
R: jig
M: 6/8
K: Dmajor
g3|:f2e d2c|dcd gab|f2e d2c|dcd ~g3|
f2e d2c|dcd ~a3|f2e d2c|1 dcd ~g3:|2 d2e f2g||
|:~a3 a2g|~f3 f2g|~a3 abg|~f3 ~f2f|
f2e d2c|dcd gab|f2e d2c|1 d2e f2g:|2 dcd g3||

